X: 37591
T: Smith O' Couster
R: reel
M: 4/4
K: Dmajor
d2fd gece|dfed cAA=c|BGGB AFFA|^GBed cABc|
d2fd gece|dfed cAA=c|BGGB AFFA|1 Bgec fddA:|2 Bgec fdde||
fdad ecac|dfed cAA=c|BGGB AFFA|^GBed cAAe|
fdad ecac|dfed cAA=c|BGGB AFFA|1 Bgec fdde:|2 Bgec fdd2||

